static/img/kroki/c127acd519521117657c5fd3f2f0edff.svg

<?xml version="1.0" encoding="us-ascii" standalone="no"?><svg xmlns="http://www.w3.org/2000/svg" xmlns:xlink="http://www.w3.org/1999/xlink" contentStyleType="text/css" height="374px" preserveAspectRatio="none" style="width:442px;height:374px;" version="1.1" viewBox="0 0 442 374" width="442px" zoomAndPan="magnify"><defs/><g><!--class kubernetes_mutating_webhook_configuration--><g id="elem_kubernetes_mutating_webhook_configuration"><rect codeLine="23" fill="#3D176E" height="39.7891" id="kubernetes_mutating_webhook_configuration" rx="2.5" ry="2.5" style="stroke:#000D19;stroke-width:0.5;" width="428" x="7" y="328.58"/><ellipse cx="22" cy="348.4745" fill="#ADD1B2" rx="11" ry="11" style="stroke:#181818;stroke-width:1.0;"/><path d="M24.9688,354.1152 Q24.3906,354.412 23.75,354.5527 Q23.1094,354.7089 22.4063,354.7089 Q19.9063,354.7089 18.5781,353.0683 Q17.2656,351.412 17.2656,348.287 Q17.2656,345.162 18.5781,343.5058 Q19.9063,341.8495 22.4063,341.8495 Q23.1094,341.8495 23.75,342.0058 Q24.4063,342.162 24.9688,342.4589 L24.9688,345.1777 Q24.3438,344.5995 23.75,344.3339 Q23.1563,344.0527 22.5313,344.0527 Q21.1875,344.0527 20.5,345.1308 Q19.8125,346.1933 19.8125,348.287 Q19.8125,350.3808 20.5,351.4589 Q21.1875,352.5214 22.5313,352.5214 Q23.1563,352.5214 23.75,352.2558 Q24.3438,351.9745 24.9688,351.3964 L24.9688,354.1152 Z " fill="#000000"/><text fill="#D9B8FF" font-family="Helvetica" font-size="17" lengthAdjust="spacing" textLength="386" x="41" y="354.3598">kubernetes_mutating_webhook_configuration</text></g><!--class kubernetes_resource--><g id="elem_kubernetes_resource"><rect codeLine="26" fill="#3D176E" height="39.7891" id="kubernetes_resource" rx="2.5" ry="2.5" style="stroke:#000D19;stroke-width:0.5;" width="216" x="113" y="167.79"/><ellipse cx="128" cy="187.6845" fill="#ADD1B2" rx="11" ry="11" style="stroke:#181818;stroke-width:1.0;"/><path d="M130.9688,193.3252 Q130.3906,193.622 129.75,193.7627 Q129.1094,193.9189 128.4063,193.9189 Q125.9063,193.9189 124.5781,192.2783 Q123.2656,190.622 123.2656,187.497 Q123.2656,184.372 124.5781,182.7158 Q125.9063,181.0595 128.4063,181.0595 Q129.1094,181.0595 129.75,181.2158 Q130.4063,181.372 130.9688,181.6689 L130.9688,184.3877 Q130.3438,183.8095 129.75,183.5439 Q129.1563,183.2627 128.5313,183.2627 Q127.1875,183.2627 126.5,184.3408 Q125.8125,185.4033 125.8125,187.497 Q125.8125,189.5908 126.5,190.6689 Q127.1875,191.7314 128.5313,191.7314 Q129.1563,191.7314 129.75,191.4658 Q130.3438,191.1845 130.9688,190.6064 L130.9688,193.3252 Z " fill="#000000"/><text fill="#D9B8FF" font-family="Helvetica" font-size="17" lengthAdjust="spacing" textLength="174" x="147" y="193.5698">kubernetes_resource</text></g><!--class resource--><g id="elem_resource"><rect codeLine="29" fill="#3D176E" height="39.7891" id="resource" rx="2.5" ry="2.5" style="stroke:#000D19;stroke-width:0.5;" width="113" x="164.5" y="7"/><ellipse cx="179.5" cy="26.8945" fill="#ADD1B2" rx="11" ry="11" style="stroke:#181818;stroke-width:1.0;"/><path d="M182.4688,32.5352 Q181.8906,32.832 181.25,32.9727 Q180.6094,33.1289 179.9063,33.1289 Q177.4063,33.1289 176.0781,31.4883 Q174.7656,29.832 174.7656,26.707 Q174.7656,23.582 176.0781,21.9258 Q177.4063,20.2695 179.9063,20.2695 Q180.6094,20.2695 181.25,20.4258 Q181.9063,20.582 182.4688,20.8789 L182.4688,23.5977 Q181.8438,23.0195 181.25,22.7539 Q180.6563,22.4727 180.0313,22.4727 Q178.6875,22.4727 178,23.5508 Q177.3125,24.6133 177.3125,26.707 Q177.3125,28.8008 178,29.8789 Q178.6875,30.9414 180.0313,30.9414 Q180.6563,30.9414 181.25,30.6758 Q181.8438,30.3945 182.4688,29.8164 L182.4688,32.5352 Z " fill="#000000"/><text fill="#D9B8FF" font-family="Helvetica" font-size="17" lengthAdjust="spacing" textLength="71" x="198.5" y="32.7798">resource</text></g><!--reverse link kubernetes_resource to kubernetes_mutating_webhook_configuration--><g id="link_kubernetes_resource_kubernetes_mutating_webhook_configuration"><path codeLine="32" d="M221,225.84 C221,256.36 221,297.69 221,328.25 " fill="none" id="kubernetes_resource-backto-kubernetes_mutating_webhook_configuration" style="stroke:#FFAF37;stroke-width:2.0;"/><polygon fill="none" points="221,207.84,215,225.84,227,225.84,221,207.84" style="stroke:#FFAF37;stroke-width:2.0;"/></g><!--reverse link resource to kubernetes_resource--><g id="link_resource_kubernetes_resource"><path codeLine="33" d="M221,65.05 C221,95.57 221,136.9 221,167.46 " fill="none" id="resource-backto-kubernetes_resource" style="stroke:#FFAF37;stroke-width:2.0;"/><polygon fill="none" points="221,47.05,215,65.05,227,65.05,221,47.05" style="stroke:#FFAF37;stroke-width:2.0;"/></g><!--SRC=[ZPBDRi8m48JlUGfBd952KGj8lK2aghsWglIEd7YTM4cyQBrfH7_UlKafbKa8z3hphMTsvSme453kU2zAA6CW5xZSs9qaMOeb4TOH5aXYfBNKqrdNV43BLu6rB44yGl46R1BP9Lupa-GMd1CtdhMIIPuILbOTdcUIrZKMMFQeg93EBPd9n1M3LqOjuhdMNRBxw6Yg9hCxw6582kWN2SDGJHPTv6hKnRt_Y8rv1p7nZxP6XbxDNiGFTR5bItWbUuiU_S6Epr8fOrDnwsalXqvaWKxqJIOLrYsjPU7y6CT0WBpVGTJR2XPpfMTduQSXE4ZQqucyQdwg1GQtBIkMt4HlQuWpn7oReDKchQXHqOgF8FZg3n4uh2W1tpxLpi7td-Fn-F_PmV3WqGc-0G00]--></g></svg>

<svg xmlns="http://www.w3.org/2000/svg" width="442" height="374" viewBox="0 0 442 374"><rect width="428" height="39.789" x="7" y="328.58" fill="#3D176E" rx="2.5" ry="2.5" style="stroke:#000d19;stroke-width:.5"/><circle cx="22" cy="348.474" r="11" fill="#ADD1B2" style="stroke:#181818;stroke-width:1"/><path d="M24.969 354.115q-.578.297-1.219.438-.64.156-1.344.156-2.5 0-3.828-1.64-1.312-1.657-1.312-4.782t1.312-4.781q1.328-1.656 3.828-1.656.703 0 1.344.156.656.156 1.219.453v2.719q-.625-.579-1.219-.844-.594-.281-1.219-.281-1.343 0-2.031 1.078-.687 1.062-.687 3.156t.687 3.172q.688 1.062 2.031 1.062.625 0 1.219-.265.594-.281 1.219-.86z"/><text x="41" y="354.36" fill="#D9B8FF" font-family="Helvetica" font-size="17" textLength="386">kubernetes_mutating_webhook_configuration</text><rect width="216" height="39.789" x="113" y="167.79" fill="#3D176E" rx="2.5" ry="2.5" style="stroke:#000d19;stroke-width:.5"/><circle cx="128" cy="187.685" r="11" fill="#ADD1B2" style="stroke:#181818;stroke-width:1"/><path d="M130.969 193.325q-.578.297-1.219.438-.64.156-1.344.156-2.5 0-3.828-1.64-1.312-1.657-1.312-4.782t1.312-4.781q1.328-1.656 3.828-1.656.703 0 1.344.156.656.156 1.219.453v2.719q-.625-.578-1.219-.844-.594-.281-1.219-.281-1.344 0-2.031 1.078-.687 1.062-.687 3.156t.687 3.172q.688 1.062 2.031 1.062.625 0 1.219-.265.594-.281 1.219-.86z"/><text x="147" y="193.57" fill="#D9B8FF" font-family="Helvetica" font-size="17" textLength="174">kubernetes_resource</text><rect width="113" height="39.789" x="164.5" y="7" fill="#3D176E" rx="2.5" ry="2.5" style="stroke:#000d19;stroke-width:.5"/><circle cx="179.5" cy="26.895" r="11" fill="#ADD1B2" style="stroke:#181818;stroke-width:1"/><path d="M182.469 32.535q-.578.297-1.219.438-.64.156-1.344.156-2.5 0-3.828-1.64-1.312-1.657-1.312-4.782t1.312-4.781q1.328-1.656 3.828-1.656.703 0 1.344.156.656.156 1.219.453v2.719q-.625-.578-1.219-.844-.594-.281-1.219-.281-1.344 0-2.031 1.078-.687 1.062-.687 3.156t.687 3.172q.688 1.062 2.031 1.062.625 0 1.219-.265.594-.281 1.219-.86z"/><text x="198.5" y="32.78" fill="#D9B8FF" font-family="Helvetica" font-size="17" textLength="71">resource</text><path fill="none" d="M221 225.84v102.41m0-120.41-6 18h12zm0-142.79v102.41m0-120.41-6 18h12z" style="stroke:#ffaf37;stroke-width:2"/></svg>
